images/aZRX.svg

<svg height="250" viewBox="0 0 250 250" width="250" xmlns="http://www.w3.org/2000/svg" xmlns:xlink="http://www.w3.org/1999/xlink"><linearGradient id="a" gradientUnits="userSpaceOnUse" x1="210.75" x2="51.5" y1="33.75" y2="221.5"><stop offset="0" stop-color="#b6509e"/><stop offset="1" stop-color="#2ebac6"/></linearGradient><path d="m250 125c0 69.035156-55.964844 125-125 125s-125-55.964844-125-125 55.964844-125 125-125 125 55.964844 125 125zm0 0" fill="#fff"/><path d="m125 250c-8.460938.003906-16.902344-.847656-25.195312-2.539062-15.988282-3.273438-31.175782-9.667969-44.699219-18.808594-20.09375-13.566406-35.828125-32.671875-45.285157-54.996094-3.195312-7.5625-5.632812-15.417969-7.28125-23.460938-3.386718-16.625-3.386718-33.761718 0-50.382812 3.273438-15.988281 9.664063-31.179688 18.808594-44.699219 13.566406-20.097656 32.671875-35.828125 54.996094-45.289062 7.5625-3.199219 15.417969-5.636719 23.460938-7.285157 16.625-3.386718 33.761718-3.386718 50.382812 0 15.988281 3.273438 31.179688 9.664063 44.699219 18.808594 20.097656 13.566406 35.828125 32.671875 45.289062 54.996094 3.195313 7.5625 5.636719 15.417969 7.285157 23.460938 3.386718 16.625 3.386718 33.761718 0 50.382812-3.273438 15.992188-9.664063 31.179688-18.808594 44.699219-13.566406 20.09375-32.671875 35.828125-54.996094 45.285156-7.5625 3.199219-15.417969 5.640625-23.460938 7.289063-8.292968 1.691406-16.734374 2.542968-25.195312 2.539062zm0-236.609375c-7.554688 0-15.089844.757813-22.492188 2.269531-14.277343 2.921875-27.839843 8.628906-39.910156 16.792969-17.941406 12.113281-31.984375 29.171875-40.429687 49.105469-2.855469 6.75-5.03125 13.769531-6.503907 20.949218-3.023437 14.839844-3.023437 30.140626 0 44.984376 2.925782 14.277343 8.632813 27.835937 16.796876 39.90625 12.113281 17.945312 29.171874 31.992187 49.105468 40.4375 6.75 2.855468 13.769532 5.03125 20.949219 6.503906 14.84375 3.023437 30.144531 3.023437 44.984375 0 14.277344-2.925782 27.839844-8.632813 39.910156-16.796875 17.9375-12.113281 31.976563-29.171875 40.421875-49.101563 2.855469-6.75 5.03125-13.769531 6.503907-20.949218 3.023437-14.84375 3.023437-30.144532 0-44.984376-2.925782-14.277343-8.632813-27.835937-16.796876-39.90625-12.113281-17.941406-29.167968-31.988281-49.097656-40.433593-6.75-2.855469-13.769531-5.03125-20.949218-6.503907-7.402344-1.511718-14.9375-2.273437-22.492188-2.273437zm0 0" fill="url(#a)"/><path d="m177.367188 158.394531c6.933593 9.324219 14.09375 18.863281 21.246093 28.40625-14.308593 16.910157-32.089843 27.753907-53.554687 32.304688-23.851563 4.988281-46.398438 1.300781-68.300782-10.839844 19.515626-14.53125 38.597657-28.835937 57.894532-43.144531 4.335937 4.121094 8.453125 8.238281 12.574218 12.144531 4.554688 4.335937 2.820313 4.550781 8.671876 1.300781 7.96875-4.542968 14.792968-10.847656 19.949218-18.429687.21875-.433594.652344-.867188.867188-1.300781-.214844 0 0 0 .652344-.433594zm-85.214844 19.082031c-5.417969 4.121094-10.40625 7.804688-15.394532 11.710938-3.683593 2.816406-7.371093 5.417969-11.054687 8.238281-1.519531 1.300781-2.601563 1.300781-4.339844-.21875-16.476562-14.746093-26.882812-32.957031-30.789062-54.636719-3.90625-21.902343-.433594-42.714843 9.976562-62.445312.214844-.433594.648438-1.085938.867188-1.519531 0-.214844.214843-.214844.648437-.433594 14.3125 18.863281 28.839844 37.730469 43.148438 56.589844-.308594.542969-.671875 1.050781-1.082032 1.519531-4.339843 4.550781-8.675781 9.105469-13.226562 13.441406-1.300781 1.300782-1.519531 2.386719-.652344 3.90625 4.507813 8.539063 10.878906 15.949219 18.648438 21.679688 1.082031.652344 1.949218 1.300781 3.25 2.167968zm80.875-134.648437c-6.933594 4.988281-13.875 9.976563-20.8125 14.746094-11.925782 8.457031-23.851563 17.128906-35.5625 25.585937-1.515625 1.085938-2.601563 1.300782-3.90625-.214844-3.90625-4.121093-8.019532-7.804687-11.925782-11.925781-.914062-1.070312-2.457031-1.339843-3.683593-.652343-9.09375 4.703124-16.90625 11.550781-22.761719 19.949218-.484375.539063-.921875 1.117188-1.300781 1.734375-3.46875-4.554687-6.722657-8.671875-9.976563-13.007812-3.46875-4.554688-6.71875-9.109375-9.972656-13.445313-1.082031-1.515625-1.300781-2.601562.21875-4.121094 16.699219-18.429687 37.292969-29.269531 62.011719-31.871093 19.511719-2.167969 38.160156 1.734375 55.503906 11.058593.652344.433594 1.300781.648438 1.953125 1.082032 0 .648437 0 .867187.214844 1.082031zm35.34375 130.09375c-4.554688-5.851563-8.671875-11.273437-12.792969-16.699219-9.539063-12.574218-19.078125-25.367187-28.835937-37.941406-1.300782-1.734375-1.300782-2.820312.214843-4.339844 4.121094-4.117187 8.023438-8.238281 12.144531-12.359375 1.082032-1.082031 1.515626-2.167969.648438-3.683593-4.679688-9.046876-11.4375-16.847657-19.726562-22.765626-.683594-.558593-1.410157-1.066406-2.167969-1.519531.652343-.648437 1.300781-1.082031 1.734375-1.515625 8.238281-6.289062 16.480468-12.359375 24.71875-18.648437 1.300781-1.082031 2.382812-1.515625 3.90625 0 20.597656 18.648437 31.65625 41.847656 32.738281 69.816406.414063 16.046875-3.242187 31.933594-10.621094 46.183594-.792969 1.074219-1.449219 2.242187-1.960937 3.472656zm0 0" fill="#231815"/></svg>

<svg xmlns="http://www.w3.org/2000/svg" xmlns:xlink="http://www.w3.org/1999/xlink" width="250px" height="250px" viewBox="0 0 250 250" version="1.1">
<defs>
<linearGradient id="linear0" gradientUnits="userSpaceOnUse" x1="0.843" y1="0.135" x2="0.206" y2="0.886" gradientTransform="matrix(250,0,0,250,0,0)">
<stop offset="0" style="stop-color:rgb(71.372551%,31.37255%,61.960787%);stop-opacity:1;"/>
<stop offset="1" style="stop-color:rgb(18.039216%,72.941178%,77.64706%);stop-opacity:1;"/>
</linearGradient>
</defs>
<g id="surface1">
<path style=" stroke:none;fill-rule:nonzero;fill:rgb(100%,100%,100%);fill-opacity:1;" d="M 250 125 C 250 194.035156 194.035156 250 125 250 C 55.964844 250 0 194.035156 0 125 C 0 55.964844 55.964844 0 125 0 C 194.035156 0 250 55.964844 250 125 Z M 250 125 "/>
<path style=" stroke:none;fill-rule:nonzero;fill:url(#linear0);" d="M 125 250 C 116.539062 250.003906 108.097656 249.152344 99.804688 247.460938 C 83.816406 244.1875 68.628906 237.792969 55.105469 228.652344 C 35.011719 215.085938 19.277344 195.980469 9.820312 173.65625 C 6.625 166.09375 4.1875 158.238281 2.539062 150.195312 C -0.847656 133.570312 -0.847656 116.433594 2.539062 99.8125 C 5.8125 83.824219 12.203125 68.632812 21.347656 55.113281 C 34.914062 35.015625 54.019531 19.285156 76.34375 9.824219 C 83.90625 6.625 91.761719 4.1875 99.804688 2.539062 C 116.429688 -0.847656 133.566406 -0.847656 150.1875 2.539062 C 166.175781 5.8125 181.367188 12.203125 194.886719 21.347656 C 214.984375 34.914062 230.714844 54.019531 240.175781 76.34375 C 243.371094 83.90625 245.8125 91.761719 247.460938 99.804688 C 250.847656 116.429688 250.847656 133.566406 247.460938 150.1875 C 244.1875 166.179688 237.796875 181.367188 228.652344 194.886719 C 215.085938 214.980469 195.980469 230.714844 173.65625 240.171875 C 166.09375 243.371094 158.238281 245.8125 150.195312 247.460938 C 141.902344 249.152344 133.460938 250.003906 125 250 Z M 125 13.390625 C 117.445312 13.390625 109.910156 14.148438 102.507812 15.660156 C 88.230469 18.582031 74.667969 24.289062 62.597656 32.453125 C 44.65625 44.566406 30.613281 61.625 22.167969 81.558594 C 19.3125 88.308594 17.136719 95.328125 15.664062 102.507812 C 12.640625 117.347656 12.640625 132.648438 15.664062 147.492188 C 18.589844 161.769531 24.296875 175.328125 32.460938 187.398438 C 44.574219 205.34375 61.632812 219.390625 81.566406 227.835938 C 88.316406 230.691406 95.335938 232.867188 102.515625 234.339844 C 117.359375 237.363281 132.660156 237.363281 147.5 234.339844 C 161.777344 231.414062 175.339844 225.707031 187.410156 217.542969 C 205.347656 205.429688 219.386719 188.371094 227.832031 168.441406 C 230.6875 161.691406 232.863281 154.671875 234.335938 147.492188 C 237.359375 132.648438 237.359375 117.347656 234.335938 102.507812 C 231.410156 88.230469 225.703125 74.671875 217.539062 62.601562 C 205.425781 44.660156 188.371094 30.613281 168.441406 22.167969 C 161.691406 19.3125 154.671875 17.136719 147.492188 15.664062 C 140.089844 14.152344 132.554688 13.390625 125 13.390625 Z M 125 13.390625 "/>
<path style=" stroke:none;fill-rule:nonzero;fill:rgb(13.725491%,9.411765%,8.235294%);fill-opacity:1;" d="M 177.367188 158.394531 C 184.300781 167.71875 191.460938 177.257812 198.613281 186.800781 C 184.304688 203.710938 166.523438 214.554688 145.058594 219.105469 C 121.207031 224.09375 98.660156 220.40625 76.757812 208.265625 C 96.273438 193.734375 115.355469 179.429688 134.652344 165.121094 C 138.988281 169.242188 143.105469 173.359375 147.226562 177.265625 C 151.78125 181.601562 150.046875 181.816406 155.898438 178.566406 C 163.867188 174.023438 170.691406 167.71875 175.847656 160.136719 C 176.066406 159.703125 176.5 159.269531 176.714844 158.835938 C 176.5 158.835938 176.714844 158.835938 177.367188 158.402344 Z M 92.152344 177.476562 C 86.734375 181.597656 81.746094 185.28125 76.757812 189.1875 C 73.074219 192.003906 69.386719 194.605469 65.703125 197.425781 C 64.183594 198.726562 63.101562 198.726562 61.363281 197.207031 C 44.886719 182.460938 34.480469 164.25 30.574219 142.570312 C 26.667969 120.667969 30.140625 99.855469 40.550781 80.125 C 40.765625 79.691406 41.199219 79.039062 41.417969 78.605469 C 41.417969 78.390625 41.632812 78.390625 42.066406 78.171875 C 56.378906 97.035156 70.90625 115.902344 85.214844 134.761719 C 84.90625 135.304688 84.542969 135.8125 84.132812 136.28125 C 79.792969 140.832031 75.457031 145.386719 70.90625 149.722656 C 69.605469 151.023438 69.386719 152.109375 70.253906 153.628906 C 74.761719 162.167969 81.132812 169.578125 88.902344 175.308594 C 89.984375 175.960938 90.851562 176.609375 92.152344 177.476562 Z M 173.027344 42.828125 C 166.09375 47.816406 159.152344 52.804688 152.214844 57.574219 C 140.289062 66.03125 128.363281 74.703125 116.652344 83.160156 C 115.136719 84.246094 114.050781 84.460938 112.746094 82.945312 C 108.839844 78.824219 104.726562 75.140625 100.820312 71.019531 C 99.90625 69.949219 98.363281 69.679688 97.136719 70.367188 C 88.042969 75.070312 80.230469 81.917969 74.375 90.316406 C 73.890625 90.855469 73.453125 91.433594 73.074219 92.050781 C 69.605469 87.496094 66.351562 83.378906 63.097656 79.042969 C 59.628906 74.488281 56.378906 69.933594 53.125 65.597656 C 52.042969 64.082031 51.824219 62.996094 53.34375 61.476562 C 70.042969 43.046875 90.636719 32.207031 115.355469 29.605469 C 134.867188 27.4375 153.515625 31.339844 170.859375 40.664062 C 171.511719 41.097656 172.160156 41.3125 172.8125 41.746094 C 172.8125 42.394531 172.8125 42.613281 173.027344 42.828125 Z M 208.371094 172.921875 C 203.816406 167.070312 199.699219 161.648438 195.578125 156.222656 C 186.039062 143.648438 176.5 130.855469 166.742188 118.28125 C 165.441406 116.546875 165.441406 115.460938 166.957031 113.941406 C 171.078125 109.824219 174.980469 105.703125 179.101562 101.582031 C 180.183594 100.5 180.617188 99.414062 179.75 97.898438 C 175.070312 88.851562 168.3125 81.050781 160.023438 75.132812 C 159.339844 74.574219 158.613281 74.066406 157.855469 73.613281 C 158.507812 72.964844 159.15625 72.53125 159.589844 72.097656 C 167.828125 65.808594 176.070312 59.738281 184.308594 53.449219 C 185.609375 52.367188 186.691406 51.933594 188.214844 53.449219 C 208.8125 72.097656 219.871094 95.296875 220.953125 123.265625 C 221.367188 139.3125 217.710938 155.199219 210.332031 169.449219 C 209.539062 170.523438 208.882812 171.691406 208.371094 172.921875 Z M 208.371094 172.921875 "/>
</g>
</svg>
